X:39
T:La caille
R:
N:
O:France
Z:<anamnese@laposte.net> -- http://anamnese.fr.st
M:3/8
L:1/8
Q:1/4=135
K:Bb
D |: G/ ^F/ G A | B G d | d c2 |1 d2 D :|2 
d2 e | d c2 | A/ B/ c d | c B2 | G2 B | A D2 | G2 z ||
W:O caille, o ma caille o est ton nid  (2x)
W:O est ton nid ma belle o est ton nid  O est ton nid 
W:
W:L-bas dans la prairie, prs du ruisseau (2x)
W:Prs du ruisseau ma belle
W:Prs du ruisseau. (2x)
